elusive/indent-left.svg

<?xml version="1.0" encoding="UTF-8" standalone="no"?>
<!-- Generator: IcoMoon.io -->

<svg
   xmlns:dc="http://purl.org/dc/elements/1.1/"
   xmlns:cc="http://creativecommons.org/ns#"
   xmlns:rdf="http://www.w3.org/1999/02/22-rdf-syntax-ns#"
   xmlns:svg="http://www.w3.org/2000/svg"
   xmlns="http://www.w3.org/2000/svg"
   xmlns:sodipodi="http://sodipodi.sourceforge.net/DTD/sodipodi-0.dtd"
   xmlns:inkscape="http://www.inkscape.org/namespaces/inkscape"
   id="svg2"
   version="1.1"
   data-tags="remove-circle, cancel, close, remove, delete"
   height="1200"
   width="1200"
   data-du=""
   viewBox="0 0 1200 1200"
   inkscape:version="0.48.4 r9939"
   sodipodi:docname="indent-left.svg">
  <defs
     id="defs32" />
  <sodipodi:namedview
     pagecolor="#ffffff"
     bordercolor="#666666"
     borderopacity="1"
     objecttolerance="10"
     gridtolerance="10"
     guidetolerance="10"
     inkscape:pageopacity="0"
     inkscape:pageshadow="2"
     inkscape:window-width="1535"
     inkscape:window-height="876"
     id="namedview30"
     showgrid="false"
     inkscape:zoom="0.37249375"
     inkscape:cx="454.50936"
     inkscape:cy="548.93443"
     inkscape:window-x="65"
     inkscape:window-y="24"
     inkscape:window-maximized="1"
     inkscape:current-layer="svg2" />
  <metadata
     id="metadata62">
    <rdf:RDF>
      <cc:Work
         rdf:about="">
        <dc:format>image/svg+xml</dc:format>
        <dc:type
           rdf:resource="http://purl.org/dc/dcmitype/StillImage" />
        <dc:title />
      </cc:Work>
    </rdf:RDF>
  </metadata>
  <path
     style="font-size:1353.90197754px;font-style:italic;letter-spacing:0;word-spacing:0;font-family:Serif"
     id="path12458"
     d="m 1200,100.23202 0,176.14733 -1199.999997605,0 0,-176.07421 L 1200,100.23196 z M 2.395e-6,374.74372 337.93946,600.03671 2.395e-6,825.32967 l 0,-450.58595 z M 1200,376.06209 l 0,175.5614 -693.75,0 0,-175.5614 693.75,0 z m 0,273.70594 0,175.56141 -693.75,0 0,-175.56141 693.75,0 z M 2.395e-6,923.69382 1200,923.767 l 0,176.001 -1199.999997605,0 0,-176.07412 z"
     inkscape:connector-curvature="0" />
</svg>

<?xml version="1.0" encoding="utf-8"?>
<!-- Generator: Adobe Illustrator 16.0.0, SVG Export Plug-In . SVG Version: 6.00 Build 0)  -->
<!DOCTYPE svg PUBLIC "-//W3C//DTD SVG 1.1//EN" "http://www.w3.org/Graphics/SVG/1.1/DTD/svg11.dtd">
<svg version="1.1"
	 id="svg2" xmlns:dc="http://purl.org/dc/elements/1.1/" xmlns:cc="http://creativecommons.org/ns#" xmlns:rdf="http://www.w3.org/1999/02/22-rdf-syntax-ns#" xmlns:svg="http://www.w3.org/2000/svg" xmlns:sodipodi="http://sodipodi.sourceforge.net/DTD/sodipodi-0.dtd" xmlns:inkscape="http://www.inkscape.org/namespaces/inkscape" sodipodi:docname="indent-left.svg" inkscape:version="0.48.4 r9939"
	 xmlns="http://www.w3.org/2000/svg" xmlns:xlink="http://www.w3.org/1999/xlink" x="0px" y="0px" width="1200px" height="1200px"
	 viewBox="0 0 1200 1200" enable-background="new 0 0 1200 1200" xml:space="preserve">
<sodipodi:namedview  inkscape:cy="548.93443" inkscape:cx="454.50936" inkscape:zoom="0.37249375" showgrid="false" id="namedview30" guidetolerance="10" gridtolerance="10" objecttolerance="10" borderopacity="1" bordercolor="#666666" pagecolor="#ffffff" inkscape:current-layer="svg2" inkscape:window-maximized="1" inkscape:window-y="24" inkscape:window-height="876" inkscape:window-width="1535" inkscape:pageshadow="2" inkscape:pageopacity="0" inkscape:window-x="65">
	</sodipodi:namedview>
<path id="path12458" inkscape:connector-curvature="0" d="M1200,100.232V276.38H0V100.306L1200,100.232L1200,100.232z M0,374.744
	l337.939,225.293L0,825.33V374.744z M1200,376.062v175.561H506.25V376.062H1200L1200,376.062z M1200,649.768v175.562H506.25V649.768
	H1200z M0,923.693l1200,0.073v176.001H0V923.693L0,923.693z"/>
</svg>
